X: 3
T:The Happy One-Step
M:4/4
L:1/4
Q:120
C:Trad.
R:Cajun One-Step
H:Sharon learned this one from Mary Custy an Eoin O'Neill.
K:G
d>G B>d- d>G B>d|g>c e>g- g>a g>e|d>G B>d- d>B- B>A|A>G G>E D2 G>B|
d>G B>d- d>G B>d|g>c e>g- g>a g>e|d>G B>G A>G E>D | E>G G>G- G2 A>G|
d>G B>d- d>G B>d|g>c e>g- g>a g>e|d>G B>d- d>B- B>A|A>G G>E D2 G>B|
d>G B>d- d>G B>d|g>c e>g- g>a g>e|d>G B>G A>G E>D | E>G G>G- G2 B>d||
b>d b>b- b>d b>d|a>d a>a- a>d a>d|b>d b>b- b>d b>d|c'>d c'>c'- c'>d c'>d
|
b>d b>b- b>d b>d|a>d a>a- a>d a>d|b>d b>b- b>d b>d|c'>d b>d- a>d g>e|
d>G B>d- d>G B>d|g>c e>g- g>a g>e|d>G B>d- d>B- B>A|A>G G>E D2 G>B|
d>G B>d- d>G B>d|g>c e>g- g>a g>e|d>G B>G A>G E>D| E>G G>G- G4|
% URL for the latest version of this file :
% http://www.lesession.demon.co.uk/lgsdmweb.abc
% Please do not redistribute this file without the above URL
% Steve Mansfield 19/09/99
